svg/male_sex_worker_positive.svg

<?xml version="1.0" encoding="UTF-8" standalone="no"?>
<!-- Created with Inkscape (http://www.inkscape.org/) -->
<svg id="svg8" xmlns:rdf="http://www.w3.org/1999/02/22-rdf-syntax-ns#" xmlns="http://www.w3.org/2000/svg" xmlns:osb="http://www.openswatchbook.org/uri/2009/osb" height="48" width="48" version="1.1" xmlns:cc="http://creativecommons.org/ns#" viewBox="0 0 12.7 12.7" xmlns:dc="http://purl.org/dc/elements/1.1/">
 <title id="title4753">UIO-icon</title>
 <metadata id="metadata5">
  <rdf:RDF>
   <cc:Work rdf:about="">
    <dc:format>image/svg+xml</dc:format>
    <dc:type rdf:resource="http://purl.org/dc/dcmitype/StillImage"/>
    <dc:title>UIO-icon</dc:title>
    <dc:creator>
     <cc:Agent>
      <dc:title>Joaquín Urbano</dc:title>
     </cc:Agent>
    </dc:creator>
    <dc:rights>
     <cc:Agent>
      <dc:title>GPL</dc:title>
     </cc:Agent>
    </dc:rights>
   </cc:Work>
  </rdf:RDF>
 </metadata>
 <g id="layer1" fill="#333" transform="translate(0,-284.3)">
  <path id="path1084" d="m12.051 4.0664c-1.875 0.0003-3.3945 1.5199-3.3948 3.3945 0.00028441 1.8746 1.5199 3.3942 3.3945 3.3945 1.8746-0.0002846 3.3942-1.5199 3.3945-3.3945 0-1.8746-1.52-3.3942-3.394-3.3945zm22.699 0.0996c-1.875 0.0003-3.395 1.5211-3.395 3.3965 0.001 1.8746 1.52 3.3945 3.395 3.3945s3.394-1.5199 3.395-3.3945c0-1.8754-1.52-3.3962-3.395-3.3965zm-22.992 8.189c-1.9517 0.00025814-3.1052 1.7007-3.0938 3.6523l0.015625 2.5879c0.3885 7.8963-0.70235 9.7833-0.6875 11.439-0.14853 2.3646-0.15622 4.9199-0.625 7.0273l-2.0566 3.8535c-0.63172 1.2939-1.3351 2.2685-0.041016 2.9004 1.2941 0.63185 2.8427 0.098604 3.4746-1.1953l1.9037-3.9c0.089729-0.18402 0.15337-0.37377 0.19727-0.56445 0.075455-0.16381 0.13633-0.33633 0.17773-0.51953l0.825-6.774 1.611 5.983-0.6 4.094c-0.20887 1.4249-0.15536 2.8614 1.2695 3.0703 1.1504 0 1.6204-0.20175 1.9746-1.6992 0.48704-3.0526 1.0998-5.5165 0.59961-6.9492l-1.1133-4.918c-0.055535-0.12062-0.056457-0.2624-0.10352-0.39062-0.55104-1.5014-0.58891-3.4532-0.42773-4.6211l0.39648 0.25977c0.077347 0.050306 0.1555 0.093256 0.23633 0.13281 0.27344 0.097901 0.54908 0.19187 0.85547 0.21289 0.62893 0.025739 1.2398-0.23539 1.6777-0.72266 1.6832-0.80875 3.2842-0.7381 4.8906-0.7207l-0.62305-2.7539-2.916 1.5645c0.76095-0.89693 1.6764-1.5448 2.5781-2.2168l-2.166-1.8125-1.5312 3.375c-0.162-0.261-0.369-0.5-0.645-0.68l-2.5859-1.6836c0.00055028-0.057184 0.001953-0.11707 0.001953-0.17383l0.013672-4.2656c0.009029-1.9517-1.5328-3.5896-3.4844-3.5898zm22.992 0.118c-1.2334-0.004687-2.4391 0.095562-3.6973 0.67188l-0.007813 0.003906-0.005859 0.001953c-0.22542 0.11268-0.35136 0.18712-0.50977 0.27148-0.001748-0.001208-0.003641-0.002381-0.003906-0.003906-0.31125 0.1752-0.62509 0.37053-0.94531 0.61523-1.2553 0.88969-2.566 6.5631-2.877 13.156 0.11459 1.3544 2.0093 1.2668 2.0469 0.078125 0.31232-5.0133 1.2397-9.0912 2.377-10.521 0.00933 0.052214 0.00445 0.10829 0.005859 0.14258l-0.846 8.36c2.7652 0.17364 5.8202 0.059172 8.8398 0-0.14481-2.9948-0.57241-5.7634-0.9082-8.6055-0.002072-0.001492-0.011615-0.051194-0.048828-0.18945 0.046346 0.064286 0.10188 0.15662 0.14844 0.21094 1.1627 1.3648 2.1142 5.5067 2.4316 10.602 0.037561 1.1887 1.9323 1.2763 2.0469-0.078125-0.31095-6.5932-1.6216-12.267-2.877-13.156-0.51862-0.41205-1.0018-0.63687-1.5-0.89844l-0.001953-0.001953c-1.247-0.565-2.444-0.666-3.668-0.661zm-22.973 1.3145c1.1806 0 2.1289 0.95028 2.1289 2.1309v3.5391l-0.017578 0.54688 1.3301 0.86719 0.71289 0.46289c0.075326 0.049013 0.14462 0.1036 0.21289 0.1582l1.084 0.70508c1.0034 0.65313 1.3908 1.8235 0.86914 2.625-0.5217 0.80154-1.7486 0.9207-2.752 0.26758l-0.2793-0.18164-2.9844-1.9434c-0.074595-0.048586-0.14526-0.10012-0.21289-0.1543l-1.0859-0.70703c-1.1933-0.85-1.0918-1.58-1.1375-2.648v-3.5391c0-1.1806 0.95225-2.1309 2.1328-2.1309zm25.271 4.5273c0.008461-0.00030399 0.01693-0.00030399 0.025391 0 0.19523 0.00002085 0.35349 0.15828 0.35352 0.35352-0.00002085 0.19523-0.15828 0.35349-0.35352 0.35352-0.19523-0.00002085-0.35349-0.15828-0.35352-0.35352-0.00046112-0.18573 0.14287-0.34016 0.32813-0.35352zm-5.0312 0.03125c0.008461-0.00030399 0.01693-0.00030399 0.025391 0 0.19523 0.00002085 0.35349 0.15828 0.35352 0.35352-0.00002085 0.19523-0.15828 0.35349-0.35352 0.35352-0.19523-0.00002085-0.35349-0.15828-0.35352-0.35352-0.00046112-0.18573 0.14287-0.34016 0.32813-0.35352zm-12.262 1.834 0.18555 0.15625c0.098711-0.088717 0.20654-0.13271 0.32422-0.13086 0.11711 0.001373 0.23286 0.049492 0.34375 0.14258l-0.207 0.246c-0.068239-0.057282-0.13203-0.086206-0.18945-0.085938-0.057511-0.00077783-0.10686 0.023133-0.14648 0.070312-0.039144 0.046632-0.056026 0.092598-0.050781 0.14062 0.004677 0.04755 0.031495 0.091715 0.078125 0.13086 0.043218 0.036284 0.087603 0.05189 0.13477 0.048828 0.047163-0.003062 0.11316-0.025552 0.19727-0.070312 0.08458-0.045324 0.15754-0.080249 0.21875-0.10352 0.060641-0.023735 0.11977-0.038607 0.17578-0.042969 0.05544-0.004838 0.10951 0.002488 0.16211 0.019531 0.052035 0.016554 0.10255 0.046402 0.1543 0.089844 0.096672 0.081154 0.15048 0.17623 0.16016 0.28711 0.009677 0.11088-0.023576 0.225-0.10156 0.33984l0.16797 0.14258-0.113 0.134-0.168-0.14c-0.11037 0.10607-0.22767 0.16047-0.35156 0.16602-0.12398 0.004498-0.24475-0.040812-0.36133-0.13867l0.20703-0.24805c0.067671 0.056806 0.13219 0.085277 0.19531 0.083984 0.063036-0.002339 0.12127-0.033485 0.17188-0.09375 0.042008-0.050041 0.062359-0.10138 0.060547-0.15234-0.002381-0.051439-0.027342-0.0951-0.072266-0.13281-0.04663-0.039145-0.093324-0.057934-0.14258-0.054688-0.049346 0.002199-0.11215 0.025964-0.1875 0.068359-0.075348 0.04241-0.14267 0.075733-0.20312 0.10156-0.061027 0.025361-0.12095 0.041239-0.17773 0.048828-0.056872 0.006539-0.11232 0.002054-0.16797-0.013672-0.055173-0.016252-0.11224-0.046967-0.16797-0.09375-0.096104-0.080674-0.14834-0.17805-0.1582-0.29102-0.009859-0.11297 0.022442-0.2236 0.097656-0.33398l-0.18164-0.1543zm2.084 2.1777 0.048828 0.23633c0.13249-0.007748 0.24318 0.026682 0.33398 0.10156 0.090662 0.074147 0.15112 0.18229 0.17969 0.32422l-0.31641 0.0625c-0.017583-0.087345-0.048712-0.14798-0.09375-0.18359-0.044457-0.03651-0.09779-0.049257-0.1582-0.037109-0.059685 0.012019-0.10109 0.039278-0.12695 0.080078-0.026014 0.040074-0.0335 0.088755-0.021484 0.14844 0.011136 0.055317 0.035453 0.097965 0.074219 0.125 0.038766 0.027024 0.10557 0.048903 0.19922 0.066406 0.094377 0.017348 0.17203 0.036624 0.23438 0.056641 0.0622 0.019276 0.11757 0.044632 0.16406 0.076172 0.046343 0.030803 0.084744 0.069113 0.11523 0.11523 0.030344 0.045392 0.051119 0.099779 0.064453 0.16602 0.024909 0.12374 0.006935 0.23349-0.054688 0.32617-0.061622 0.092685-0.15842 0.15814-0.29102 0.19922l0.042969 0.21875-0.17188 0.033203-0.044922-0.21484c-0.15244 0.014022-0.27864-0.016857-0.37891-0.089844-0.09969-0.073844-0.16332-0.18477-0.19336-0.33398l0.31445-0.0625c0.017436 0.086615 0.051425 0.14912 0.10156 0.1875 0.050719 0.037493 0.11425 0.04879 0.19141 0.033203 0.064052-0.012888 0.1122-0.041076 0.14258-0.082031 0.030234-0.041681 0.038919-0.090936 0.027344-0.14844-0.012015-0.059686-0.03761-0.10266-0.078125-0.13086-0.039934-0.029065-0.10216-0.050582-0.1875-0.064453-0.085345-0.013871-0.16125-0.031295-0.22461-0.048828-0.063509-0.018255-0.11886-0.040821-0.16797-0.070312-0.048526-0.030387-0.089352-0.070197-0.12305-0.11719-0.032967-0.047134-0.057906-0.10641-0.072266-0.17773-0.024763-0.12301-0.004191-0.23174 0.058594-0.32617 0.062785-0.094435 0.15751-0.15989 0.28516-0.19922l-0.046875-0.23438zm8.3359 3.3828c-0.55746 3.5684 1.3955 0.80545 0.80859 17.254 0.038614 1.5922 3.5121 1.3293 3.4941-0.082031l-0.013672-14.25c-0.24-0.067389-0.36399-0.1408-0.55664-0.33594-0.79857-0.83859 0.12944-1.6603-3.2324-2.4316zm9.0469 0-0.50195 0.15039c-3.0776 0.70906-2.9044 2.1488-3.2461 2.502-0.13885 0.14217-0.17228 0.17115-0.48633 0.24609l-0.068359 14.273c-0.017948 1.4113 3.4536 1.6742 3.4922 0.082031-0.5869-16.448 1.368-13.686 0.81055-17.254z" fill-rule="evenodd" fill-opacity=".97494" transform="matrix(.26458 0 0 .26458 0 284.3)"/>
 </g>
</svg>

<svg width="48" height="48" viewBox="0 0 48 48" fill="none" xmlns="http://www.w3.org/2000/svg">
<path fill-rule="evenodd" clip-rule="evenodd" d="M12.0509 4.06641C10.176 4.06671 8.65648 5.58629 8.65618 7.46086C8.65647 9.33544 10.1761 10.855 12.0506 10.8553C13.9252 10.855 15.4448 9.33544 15.4451 7.46086C15.4451 5.58629 13.9251 4.06671 12.0511 4.06641H12.0509ZM34.7497 4.166C32.8747 4.1663 31.3547 5.68709 31.3547 7.56246C31.3557 9.43704 32.8747 10.9569 34.7497 10.9569C36.6246 10.9569 38.1436 9.43704 38.1446 7.56246C38.1446 5.68709 36.6246 4.1663 34.7497 4.166ZM11.7579 12.3549C9.80627 12.3552 8.65278 14.0556 8.66418 16.0072L8.67981 18.595C9.0683 26.4912 7.97747 28.3782 7.99232 30.0339C7.84379 32.3985 7.8361 34.9537 7.36732 37.0611L5.31075 40.9145C4.67904 42.2084 3.97567 43.183 5.26973 43.8149C6.56382 44.4468 8.1124 43.9135 8.74429 42.6196L10.648 38.7197C10.7377 38.5357 10.8013 38.3459 10.8452 38.1552C10.9207 37.9914 10.9816 37.8189 11.023 37.6357L11.848 30.8618L13.4589 36.8447L12.8589 40.9387C12.6501 42.3635 12.7036 43.8 14.1284 44.0089C15.2788 44.0089 15.7488 43.8072 16.103 42.3097C16.59 39.2572 17.2028 36.7933 16.7026 35.3606L15.5893 30.4427C15.5338 30.3221 15.5329 30.1803 15.4858 30.0521C14.9348 28.5507 14.8969 26.5989 15.0581 25.431L15.4545 25.6908C15.5319 25.7411 15.61 25.7841 15.6909 25.8236C15.9643 25.9215 16.2399 26.0155 16.5463 26.0365C17.1753 26.0622 17.7861 25.8011 18.224 25.3138C19.9072 24.5051 21.5082 24.5758 23.1146 24.5932L22.4915 21.8393L19.5755 23.4038C20.3365 22.5069 21.2519 21.859 22.1536 21.187L19.9876 19.3745L18.4565 22.7495C18.2945 22.4885 18.0875 22.2495 17.8115 22.0695L15.2256 20.3859C15.2261 20.3287 15.2276 20.2688 15.2276 20.2121L15.2412 15.9465C15.2503 13.9949 13.7084 12.357 11.7569 12.3568L11.7579 12.3549ZM34.7497 12.4729C33.5163 12.4682 32.3106 12.5685 31.0524 13.1448L31.0446 13.1487L31.0387 13.1506C30.8133 13.2633 30.6874 13.3377 30.529 13.4221C30.5272 13.4209 30.5253 13.4197 30.5251 13.4182C30.2138 13.5934 29.9 13.7887 29.5798 14.0334C28.3245 14.9231 27.0138 20.5964 26.7028 27.1893C26.8174 28.5436 28.7121 28.456 28.7497 27.2674C29.062 22.2541 29.9894 18.1763 31.1266 16.7465C31.136 16.7987 31.1311 16.8548 31.1325 16.8891L30.2865 25.249C33.0517 25.4226 36.1066 25.3082 39.1262 25.249C38.9814 22.2542 38.5538 19.4857 38.218 16.6436C38.2159 16.6421 38.2064 16.5924 38.1692 16.4541C38.2155 16.5184 38.2711 16.6108 38.3176 16.6651C39.4803 18.0299 40.4318 22.1717 40.7492 27.267C40.7868 28.4556 42.6815 28.5432 42.7961 27.1888C42.4851 20.5957 41.1745 14.922 39.9191 14.033C39.4005 13.6209 38.9173 13.3961 38.4191 13.1346L38.4172 13.1326C37.1702 12.5676 35.9732 12.4666 34.7492 12.4716L34.7497 12.4729ZM11.7769 13.7874C12.9575 13.7874 13.9058 14.7377 13.9058 15.9183V19.4573L13.8882 20.0042L15.2183 20.8714L15.9312 21.3342C16.0065 21.3833 16.0758 21.4378 16.1441 21.4924L17.2281 22.1975C18.2315 22.8506 18.6189 24.021 18.0972 24.8225C17.5755 25.624 16.3486 25.7432 15.3452 25.0901L15.0659 24.9084L12.0816 22.965C12.007 22.9165 11.9363 22.8649 11.8687 22.8108L10.7828 22.1037C9.58952 21.2537 9.69102 20.5237 9.64532 19.4558V15.9167C9.64532 14.7361 10.5976 13.7858 11.7781 13.7858L11.7769 13.7874ZM37.0476 18.3146C37.0561 18.3143 37.0646 18.3143 37.073 18.3146C37.2682 18.3146 37.4265 18.4729 37.4265 18.6681C37.4265 18.8634 37.2683 19.0216 37.073 19.0217C36.8778 19.0216 36.7195 18.8634 36.7195 18.6681C36.719 18.4824 36.8624 18.328 37.0476 18.3146ZM32.0165 18.3459C32.0249 18.3456 32.0334 18.3456 32.0419 18.3459C32.2371 18.3459 32.3954 18.5042 32.3954 18.6994C32.3954 18.8946 32.2371 19.0529 32.0419 19.0529C31.8467 19.0529 31.6884 18.8946 31.6884 18.6994C31.6879 18.5137 31.8312 18.3592 32.0165 18.3459ZM19.7546 20.1799L19.9402 20.3361C20.0389 20.2474 20.1467 20.2034 20.2644 20.2052C20.3815 20.2066 20.4973 20.2547 20.6082 20.3478L20.4012 20.5938C20.3329 20.5365 20.2691 20.5076 20.2117 20.5079C20.1542 20.5071 20.1048 20.531 20.0652 20.5782C20.0261 20.6248 20.0092 20.6708 20.0144 20.7188C20.0191 20.7664 20.0459 20.8105 20.0926 20.8497C20.1358 20.886 20.1802 20.9016 20.2273 20.8985C20.2745 20.8954 20.3405 20.8729 20.4246 20.8282C20.5092 20.7829 20.5821 20.7479 20.6434 20.7247C20.704 20.7009 20.7631 20.6861 20.8191 20.6817C20.8746 20.6769 20.9286 20.6842 20.9812 20.7012C21.0333 20.7178 21.0838 20.7476 21.1355 20.7911C21.2322 20.8722 21.286 20.9673 21.2957 21.0782C21.3054 21.1891 21.2721 21.3032 21.1941 21.418L21.3621 21.5606L21.2491 21.6946L21.0811 21.5546C20.9707 21.6607 20.8534 21.7151 20.7296 21.7206C20.6056 21.7251 20.4848 21.6798 20.3682 21.5819L20.5753 21.3339C20.6429 21.3907 20.7074 21.4192 20.7706 21.4179C20.8336 21.4155 20.8918 21.3844 20.9424 21.3241C20.9844 21.2741 21.0048 21.2228 21.003 21.1718C21.0006 21.1204 20.9756 21.0767 20.9307 21.039C20.8841 20.9998 20.8374 20.9811 20.7881 20.9843C20.7388 20.9865 20.676 21.0103 20.6006 21.0527C20.5253 21.0951 20.458 21.1284 20.3975 21.1542C20.3365 21.1796 20.2766 21.1955 20.2198 21.203C20.1629 21.2096 20.1075 21.2051 20.0518 21.1894C19.9967 21.1731 19.9396 21.1424 19.8839 21.0956C19.7878 21.0149 19.7355 20.9176 19.7257 20.8046C19.7158 20.6916 19.7481 20.581 19.8233 20.4706L19.6417 20.3163L19.7546 20.1799ZM21.8386 22.3575L21.8874 22.5939C22.0199 22.5861 22.1306 22.6205 22.2214 22.6954C22.3121 22.7696 22.3725 22.8777 22.4011 23.0196L22.0847 23.0821C22.0671 22.9948 22.036 22.9341 21.991 22.8985C21.9465 22.862 21.8932 22.8493 21.8328 22.8614C21.7731 22.8735 21.7317 22.9007 21.7058 22.9415C21.6798 22.9816 21.6723 23.0303 21.6843 23.0899C21.6955 23.1453 21.7198 23.1879 21.7585 23.2149C21.7973 23.242 21.8641 23.2638 21.9578 23.2813C22.0521 23.2987 22.1298 23.318 22.1921 23.338C22.2543 23.3573 22.3097 23.3826 22.3562 23.4142C22.4025 23.445 22.4409 23.4833 22.4714 23.5294C22.5018 23.5748 22.5225 23.6292 22.5359 23.6954C22.5608 23.8191 22.5428 23.9289 22.4812 24.0216C22.4196 24.1143 22.3228 24.1797 22.1902 24.2208L22.2331 24.4395L22.0613 24.4727L22.0163 24.2579C21.8639 24.2719 21.7377 24.241 21.6374 24.1681C21.5377 24.0942 21.4741 23.9833 21.4441 23.8341L21.7585 23.7716C21.776 23.8582 21.8099 23.9207 21.8601 23.9591C21.9108 23.9966 21.9743 24.0079 22.0515 23.9923C22.1155 23.9794 22.1637 23.9512 22.1941 23.9103C22.2243 23.8686 22.233 23.8193 22.2214 23.7618C22.2094 23.7021 22.1838 23.6592 22.1433 23.631C22.1034 23.6019 22.0411 23.5804 21.9558 23.5665C21.8704 23.5526 21.7945 23.5352 21.7312 23.5177C21.6677 23.4994 21.6123 23.4769 21.5632 23.4474C21.5147 23.417 21.4739 23.3772 21.4402 23.3302C21.4072 23.283 21.3823 23.2238 21.3679 23.1525C21.3431 23.0294 21.3637 22.9207 21.4265 22.8263C21.4893 22.7319 21.584 22.6664 21.7117 22.6271L21.6648 22.3927L21.8386 22.3575ZM30.1744 25.7403C29.617 29.3086 31.5699 26.5457 30.983 42.9941C31.0216 44.5862 34.495 44.3234 34.477 42.912L34.4634 28.6622C34.2234 28.5948 34.0994 28.5214 33.9067 28.3263C33.1082 27.4877 34.0362 26.666 30.6744 25.8947L30.1744 25.7403ZM39.2212 25.7403L38.7193 25.8907C35.6417 26.5997 35.8149 28.0394 35.4732 28.3926C35.3343 28.5348 35.3009 28.5638 34.9869 28.6387L34.9185 42.9115C34.9006 44.3228 38.3721 44.5857 38.4107 42.9936C37.8238 26.5458 39.7787 29.3077 39.2212 25.7398V25.7403Z" fill="#333333" fill-opacity="0.97494"/>
</svg>
